X:1
T:Title
%%score ( 1 2 ) { 3 | ( 4 5 ) }
L:1/8
Q:1/4=135
M:6/8
K:F
V:1 treble nm="Singstimme\nVoice"
V:2 treble 
V:3 treble nm="Pianoforte"
V:4 bass 
V:5 bass 
V:1
"^Allegretto con moto" z2 z | A B c |: d2 d (de) f | c2 c (AB) c | d2 d (de) f | c3- c z c | %6
 d2 d (dc) d | c2 A F2 c | c2 c (cB) A | (A3 G) z c | c2 c c2 c | c2 f f2 f | e2 d e2 d | %13
 (c2 G) G z G | A2 A B2 B | c2 c d2 d | f2 f f2 f | (e2 d) c z c | e2 e e2 e | e2 f e2 d | %20
 d2 d (^cd) e | f3 z2 d | d2 d d2 e | f2 A (GF) G | F3 z2 z |] %25
V:2
 x3 | x3 |: x6 | x6 | x6 | x6 | x6 | x6 | x6 | x6 | x6 | x6 | x6 | x6 | x6 | x6 | x6 | e2 d c2 c | %18
 x6 | x6 | x6 | x6 | x6 | x6 | x6 |] %25
V:3
 [FAcf] z z | (ABc) |: !>!d2 z (def) | c2 z (ABc) | !>!d2 z (def) | c3- c z c | d2 z (dcd) | %7
 c2 z (FAc) | c2 z (cBA) | (A3 G) z c | ([EGBc]2 c [EGBc]2 c) | ([FAc]2 f) [Acf]2 z | %12
 ([Gce]2 [G=Bd] [Gce]2 [GBd]) | ([EGc]2 G) G z G | ([FA]2 [FA] [GB]2 [GB]) | %15
 ([Ac]2 [Ac] [Bd]2 [Bd]) | [Acf]2 [Acf] [Acf]2 [Acf] | ([GBe]2 [FBd] [EGc]2) z | %18
 [A^ce]2 [Ace] [Ace]2 [Ace] | ([A^ce]2 [Adf] [Ace]2 [FAd]) | [EBd]2 [EBd] [EB^c]2 [EBc] | %21
 [FAcf]2 z [FAd]3 | [FBd]2 [FBd] [FBd]2 [Gce] | [Acf]2 z [CEG]2 z | [CF]3 (fga) |] %25
V:4
 [F,,C,F,] z z | F,3 |: B,,F,B, B,,F,B, | A,,F,A, A,,F,A, | B,,F,B, B,,F,B, | A,,F,A, A,,F,A, | %6
 B,,F,B, B,,F,B, | A,,F,A, A,,F,A, | C,G,C C,G,C | C,G,C C,G,C | [C,C]3 [C,C]3 | [F,C]3 [F,C]2 z | %12
 [G,C]3 [G,D]3 | [C,G,C]3 z2 z | [F,C]3 [F,C]3 | [F,C]3 [F,C]3 | [F,C]3 [F,C]3 | [C,C]3 [C,C]2 z | %18
 A,,^C,E, A,,C,E, | A,,D,F, A,,D,F, | B,,D,G, B,,^C,G, | [A,,C,F,A,]2 z [D,,D,]3 | %22
 [B,,,B,,]3 [B,,B,]2 [B,,,B,,] | [C,,C,]2 z [C,,C,]2 z | [F,,F,]3[K:treble] ABc |] %25
V:5
 x3 | x3 |: B,,6 | A,,6 | B,,6 | A,,6 | B,,6 | A,,6 | C,6 | C,6 | x6 | x6 | x6 | x6 | x6 | x6 | %16
 x6 | x6 | x6 | x6 | x6 | x6 | x6 | x6 | x3[K:treble] F3 |] %25

